X: 23331
T: Lehane's
R: polka
M: 2/4
K: Amajor
|:c>B cE|FA E2|FA BA/B/|cB Be|
c>B cE|FA E2|FA BA/B/|1 cA Ae:|2 cA A>e||
ce a2|ce f2|ce fe/f/|ec BA/B/|
ce a2|ce fe/f/|ec BA/B/|cA A>e|
ce a2|ce fg|~a3 f|ec BA/B/|
ce a2|ce fe/f/|ec BA/B/|cA Ae||

